#DT2Flag	on
#Title		Bad Apple!!
#Composer	ＺＵＮ（太田）
#Arranger	ＺＵＮ（太田）
#Memo		東方幻想郷用の曲
#Memo		多分３面

@54 4 4
 31 0 0 0 0 17 0 8 7 0 0 31 16 0 8 2 0 0 4 7 0 1 31 0 0 0 0 20 0 4 3 0 0 31 16 0 8 2 0 0 2 3 0 1
@74 0 4
 31 7 7 9 2 28 3 6 6 0 0 31 6 6 9 1 58 3 5 6 0 0 31 9 6 9 1 22 2 0 6 0 0 31 6 8 9 15 0 2 1 6 0 0
@99 5 7
 31 0 0 0 0 29 0 1 0 0 0 31 14 3 15 3 0 0 1 0 0 0 31 14 3 15 3 0 0 1 0 0 0 31 14 3 15 3 0 0 1 0 0 0
@181 4 7
 31 0 0 0 0 27 0 8 7 0 0 31 16 0 8 2 0 0 4 7 0 0 31 0 0 0 0 30 0 8 3 0 0 31 16 0 8 2 0 0 4 3 0 0

A	MXA1 MXB1 _M3 L _0 t80 D0 q0 @74 V122 r%192[c8g8f8g8d+8g8d8g8]4 [c8g8f8g8d+8g8d8g8c8g8f8g8d+8g8d8g8<g+8>d+8d8d+8c8d+8<a+8>d+8<g+8>d+8d8d+8<b8>c8g8d8]2 @74 V122 [c8g8c8g8c8g8c8g8]2 <g+8>d+8<g+8>d+8<g+8>d+8<g+8>d+8<a+8>f8<a+8>f8<b8>f8<b8>f8[c8g8c8g8c8g8:c8g8]2 <a+8>f8<g+8>d+8<g+8>d+8<g+8>d+8<g+8>d+8<a+8>f8<a+8>f8<b8>f8<b8>f8@74 V122 ) ) <g+1a+1>c1c4c4c4c4( [<g+8>d+8]4 [<a+8>f8]4 [c8g8]7 <a+8>f8[<g+8>d+8]4 [<a+8>f8]4 [c8g8]7 <a+8>f8[<g+8>d+8]4 [<a+8>f8]4 [<b8>g8]8 _3 t80 D0 q0 @74 V127 q1 [<a8>e8<a16a16>e16<a16a16a16b16b16>f+16<b16b16>f+16c+8g+8c+16g+16c+16c+16c+16c+16g+16c+16<b16b16>f+16<b16a8>e8<a16a16>e16<a16a16a16b16b16>f+16<b16b16>f+16c+16c+16g+16c+16c+16g+16c+16c+16c+16c+16g+16c+16<b16b16>f+16<b16]2 [a8>e8<a16a16>e16<a16a16a16b16b16>f+16<b16b16>f+16c+8g+8c+16g+16c+16c+16c+16c+16g+16c+16<b16b16>f+16<b16a8>e8<a16a16>e16<a16a16a16b16b16>f+16<b16b16>f+16c+16c+16g+16c+16c+16g+16c+16c+16c+16c+16g+16c+16:<b16b16>f+16<b16]2 >c+16g+16c+16c+16
B	MXA1 MXB1 _M3 L _0 t80 D0 q0 @181 V111 r%255r%255r%66<g%192d+%144d2d+%192c%144<b2@99 V122 >>>>c8d8d+8f8g4c8a+8g4c4g8f8d+8d8c8d8d+8f8g4f8d+8d8<g8>d8d+8d8c8<b8>d8c8d8d+8f8g4f8a+8>c4c4d4d+4c8d8d+8f8g4f8d+8f4d4d+4f4@99 V125 <c2c8d8d+4d%36<g%36>d4d4d+8c%36<a+4a+4>c8<g%36>c4c2c8d8d+4d%36d+%36f4c%36g8g1f8g8a+4>c2c8d8d+4d%36<g%36>d4d4d+8c%36<a+4a+4>c8<g%36>d4c2c8d8d+8f8d%36d+%36f4<b%36g%36>g4f4d+4d4d+4_3 t80 D0 q0 @99 V127 D-2 [<c+8<g+4>c+4<e8g+8b8>c+8<g+8e8>c+4c+8d+8e8c+8<g+4>c+4<g+8>c+8f+8e2:d+8c+8<g+8e8]2 >d+4e4[>c+8<g+4>c+4<e8g+8b8>c+8<g+8e8>c+4c+8d+8e8c+8<g+4>c+4:<g+8>c+8f+8e2d+8c+8<g+8e8]2 g+8>c+8d+8e%72&{ec+}4 
C	MXA1 MXB1 _M3 L _0 t80 D0 q0 @181 V111 r%255r%255r%66<c%192<g+%144b2>c%192<g+%144g2@99 V122 D2 >>>c8d8d+8f8g4c8a+8g4c4g8f8d+8d8c8d8d+8f8g4f8d+8d8<g8>d8d+8d8c8<b8>d8c8d8d+8f8g4f8a+8>c4c4d4d+4c8d8d+8f8g4f8d+8f4d4d+4f4@99 V125 <c2c8d8d+4d%36<g%36>d4d4d+8c%36<a+4a+4>c8<g%36>c4c2c8d8d+4d%36d+%36f4c%36g8g1f8g8a+4>c2c8d8d+4d%36<g%36>d4d4d+8c%36<a+4a+4>c8<g%36>d4c2c8d8d+8f8d%36d+%36f4<b%36g%36>g4f4d+4d4d+4_3 t80 D0 q0 @99 V127 D2 ( [<c+8<g+4>c+4<e8g+8b8>c+8<g+8e8>c+4c+8d+8e8c+8<g+4>c+4<g+8>c+8f+8e2:d+8c+8<g+8e8]2 >d+4e4[>c+8<g+4>c+4<e8g+8b8>c+8<g+8e8>c+4c+8d+8e8c+8<g+4>c+4:<g+8>c+8f+8e2d+8c+8<g+8e8]2 g+8>c+8d+8e%72&{ec+}4 
D	MXA1 MXB1 _M3 L _0 t80 D0 q0 r%255r%129@99 q2 V111 [r8>>c8r8c8r8c8r8c8]2 ) [[r8c8r8c8:r8c8r8c8]4 r8<b8r8b8]2 @99 q2 V114 [[r8c8r8c8:r8c8r8c8]4 r8<b8r8b8]2 @54 V114 q2 [g16g16>c16c16c16c16<g16g16g16g16>c16c16c16c16c16c16]4 [<g16>c16d16<g16g16>c16d16<g16g16>c16d16<g16g16>c16d16<g16]4 [g16g16>c16c16c16c16<g16g16g16g16>c16c16c16c16c16c16]4 [<g16>c16d16<g16g16>c16d16<g16g16>c16d16<g16g16>c16d16<g16]2 [b16>c16d16g16<b16>c16d16g16<b16>c16d16g16<b16>c16d16g16]2 _3 t80 D0 q0 @99 V119 q2 [e16a16>c+16c+16<e16a16>c+16c+16<f+16b16>d+16d+16<f+16b16>d+16d+16:<g+16>c+16e16e16<g+16>c+16e16e16<g+16>c+16e16e16<f+16b16>d+16d+16]8 q0 <e%72&{ec+}4 
E	MXA1 MXB1 _M3 L _0 t80 D0 q0 r%255r%129@99 q2 V111 [r8>g8r8g8r8g8r8g8]2 ) [[r8g8r8g8r8g8r8g8]4 ]2 @99 q2 V114 [[r8g8r8g8r8g8r8g8]4 ]2 @54 V114 q2 [<d+16d+16g16g16g16g16d+16d+16d+16d+16g16g16g16g16g16g16d+16d+16g16g16g16g16d+16d+16f16f16g16g16g16g16g16g16d+16d+16g16g16g16g16d+16d+16d+16d+16g16g16g16g16g16g16d+16d+16g16g16g16g16d+16d+16d+16d+16g16g16g16g16g16g16]4 _3 t80 D0 q0 @99 V119 q2 ( [a16>e16a16a16<a16>e16a16a16<b16>f+16b16b16<b16>f+16b16b16c+16g+16>c+16c+16<c+16g+16>c+16c+16<c+16g+16>c+16c+16<<b16>f+16b16b16]4 ) [a16>e16a16a16<a16>e16a16a16<b16>f+16b16b16<b16>f+16b16b16:c+16g+16>c+16c+16<c+16g+16>c+16c+16<c+16g+16>c+16c+16<<b16>f+16b16b16]4 q0 e%72&{ec+}4 
F	MXA1 MXB1 _M3 
G	t70 DF28 DS24 DR24 MXA1 MXB1 _M3 L _0 t80 D0 q0 r%255r%129E2,255,24,1 V13 [r8>>c8r8c8r8c8r8c8]2 [<g16c16d16d+16g16c16d16d+16g16c16d16d+16a+16>c16<g16c16g16c16d16d+16g16c16d16d+16g16c16a+16>c16<g16f16d+16d16<g+16g+16>d+16<g+16g+16a+16>c16d+16<g+16g+16>d+16<g+16g+16a+16>c16d+16<b16>c16d16<g16b16>c16d16<g16b16>c16d16<g16g16>f16d+16d16]2 E2,255,24,1 V15 [[c8d8d+8g8c8d8d+8g8]3 <a+8>c8d8f8<b8>c8d8f8]2 E2,255,24,1 V14 q2 [g16g16>c16c16c16c16<g16g16g16g16>c16c16c16c16c16c16]4 [<g16>c16d16<g16g16>c16d16<g16g16>c16d16<g16g16>c16d16<g16]4 [g16g16>c16c16c16c16<g16g16g16g16>c16c16c16c16c16c16]4 [<g16>c16d16<g16g16>c16d16<g16g16>c16d16<g16g16>c16d16<g16]2 [b16>c16d16g16<b16>c16d16g16<b16>c16d16g16<b16>c16d16g16]2 _3 t80 D0 q0 E2,255,24,1 V14 q2 [<<e16a16>c+16c+16<e16a16>c+16c+16<f+16b16>d+16d+16<f+16b16>d+16d+16<g+16>c+16e16e16<g+16>c+16e16e16<g+16>c+16e16e16:<f+16b16>d+16d+16]8 <g+16>c+16e16e16
H	MXA1 MXB1 _M3 L _0 t80 D0 q0 r%255r%129E2,255,24,1 V13 [r8>g8r8g8r8g8r8g8]2 r%9[g16c16d16d+16g16c16d16d+16g16c16d16d+16a+16>c16<g16c16g16c16d16d+16g16c16d16d+16g16c16a+16>c16<g16f16d+16d16<g+16g+16>d+16<g+16g+16a+16>c16d+16<g+16g+16>d+16<g+16g+16a+16>c16d+16<g+16g+16>d+16<g+16g+16a+16>c16d+16<b16>c16d16<g16g16>f16:d+16d16]2 d+32E2,255,24,1 V15 ( r%18[[c8d8d+8g8c8d8d+8g8]3 <a+8>c8d8f8<b8>c8:d8f8]2 d16E2,255,24,1 V14 q2 [d+16d+16g16g16g16g16d+16d+16d+16d+16g16g16g16g16g16g16d+16d+16g16g16g16g16d+16d+16f16f16g16g16g16g16g16g16d+16d+16g16g16g16g16d+16d+16d+16d+16g16g16g16g16g16g16d+16d+16g16g16g16g16d+16d+16d+16d+16g16g16g16g16g16g16]2 [>d+16d+16g16g16g16g16d+16d+16d+16d+16g16g16g16g16g16g16d+16d+16g16g16g16g16d+16d+16f16f16g16g16g16g16g16g16d+16d+16g16g16g16g16d+16d+16d+16d+16g16g16g16g16g16g16d+16d+16g16g16g16g16d+16d+16d+16d+16g16g16g16g16g16g16]2 _3 t80 D0 q0 E2,255,24,1 V14 q2 ( [<<<a16>e16a16a16<a16>e16a16a16<b16>f+16b16b16<b16>f+16b16b16c+16g+16>c+16c+16<c+16g+16>c+16c+16<c+16g+16>c+16c+16<<b16>f+16b16b16]4 ) [a16>e16a16a16<a16>e16a16a16<b16>f+16b16b16<b16>f+16b16b16c+16g+16>c+16c+16<c+16g+16>c+16c+16<c+16g+16>c+16c+16:<<b16>f+16b16b16]4 c+16g+16>c+16c+16
I	MXA1 MXB1 _M3 
J	MXA1 MXB1 _M3 
K	L [R0]6 [R1]7 R2[R1]7 R5[R3]2 R0R4[R1]11 R6[[R7:R8]2 :R9]4 R0

R0	\V60 @1c4@1c4@1c4@1c4
R1	\V60 [@129c8@128c16@128c16@129c16@128c16@128c16@128c16]2 
R2	\V60 @129c8@128c16@128c16@129c16@128c16@128c16@128c16@130c16@130c16@130c16@130c16@130c16@128c16@128c16@128c16
R3	\V63 @513c1
R4	\V60 @1c4@1c4@1c4@1c16@1c16@1c16@1c16
R5	\V60 @129c8@128c16@128c16@129c16@128c16@129c16@129c16@130c16@130c16@130c16@130c16@130c16@130c16@128c16@128c16
R6	\V63 [@514c8@128c16@128c16@514c16:r16@128c16@128c16]2 r16@130c16@130c16
R7	\V63 [@129c16@128c16@130c16:@128c16]4 @130c16
R8	\V63 [@129c16@128c16@130c16@128c16]3 @129c16@130c16@130c16@129c16
R9	\V63 [@129c16@128c16:@130c16@128c16]2 @1c16@1c16@194c16@194c16@194c16@194c16@194c16@194c16@129c16@129c16